frontend/src/images/remove-icon.svg

<!DOCTYPE svg PUBLIC "-//W3C//DTD SVG 1.1//EN" "http://www.w3.org/Graphics/SVG/1.1/DTD/svg11.dtd">
<!-- Uploaded to: SVG Repo, www.svgrepo.com, Transformed by: SVG Repo Mixer Tools -->
<svg width="800px" height="800px" viewBox="0 0 28 28" fill="none" xmlns="http://www.w3.org/2000/svg" stroke="#ffffff" stroke-width="0.00028">
<g id="SVGRepo_bgCarrier" stroke-width="0"/>
<g id="SVGRepo_tracerCarrier" stroke-linecap="round" stroke-linejoin="round" stroke="#CCCCCC" stroke-width="0.22400000000000003"/>
<g id="SVGRepo_iconCarrier">
<path d="M11.8489 22.6922C11.5862 22.7201 11.3509 22.5283 11.3232 22.2638L10.4668 14.0733C10.4392 13.8089 10.6297 13.5719 10.8924 13.5441L11.368 13.4937C11.6307 13.4659 11.8661 13.6577 11.8937 13.9221L12.7501 22.1126C12.7778 22.3771 12.5873 22.614 12.3246 22.6418L11.8489 22.6922Z" fill="#ffffff"/>
<path d="M16.1533 22.6418C15.8906 22.614 15.7001 22.3771 15.7277 22.1126L16.5841 13.9221C16.6118 13.6577 16.8471 13.4659 17.1098 13.4937L17.5854 13.5441C17.8481 13.5719 18.0387 13.8089 18.011 14.0733L17.1546 22.2638C17.127 22.5283 16.8916 22.7201 16.6289 22.6922L16.1533 22.6418Z" fill="#ffffff"/>
<path clip-rule="evenodd" d="M11.9233 1C11.3494 1 10.8306 1.34435 10.6045 1.87545L9.54244 4.37037H4.91304C3.8565 4.37037 3 5.23264 3 6.2963V8.7037C3 9.68523 3.72934 10.4953 4.67218 10.6145L7.62934 26.2259C7.71876 26.676 8.11133 27 8.56729 27H20.3507C20.8242 27 21.2264 26.6513 21.2966 26.1799L23.4467 10.5956C24.3313 10.4262 25 9.64356 25 8.7037V6.2963C25 5.23264 24.1435 4.37037 23.087 4.37037H18.4561L17.394 1.87545C17.1679 1.34435 16.6492 1 16.0752 1H11.9233ZM16.3747 4.37037L16.0083 3.50956C15.8576 3.15549 15.5117 2.92593 15.1291 2.92593H12.8694C12.4868 2.92593 12.141 3.15549 11.9902 3.50956L11.6238 4.37037H16.3747ZM21.4694 11.0516C21.5028 10.8108 21.3154 10.5961 21.0723 10.5967L7.1143 10.6285C6.86411 10.6291 6.67585 10.8566 6.72212 11.1025L9.19806 24.259C9.28701 24.7317 9.69985 25.0741 10.1808 25.0741H18.6559C19.1552 25.0741 19.578 24.7058 19.6465 24.2113L21.4694 11.0516ZM22.1304 8.7037C22.6587 8.7037 23.087 8.27257 23.087 7.74074V7.25926C23.087 6.72743 22.6587 6.2963 22.1304 6.2963H5.86957C5.34129 6.2963 4.91304 6.72743 4.91304 7.25926V7.74074C4.91304 8.27257 5.34129 8.7037 5.86956 8.7037H22.1304Z" fill="#ffffff" fill-rule="evenodd"/>
</g>
</svg>

<svg width="800" height="800" viewBox="0 0 28 28" fill="none" xmlns="http://www.w3.org/2000/svg" stroke="#fff" stroke-width="0"><g fill="#fff" stroke="none"><path d="M11.849 22.692a.479.479 0 0 1-.526-.428l-.856-8.19a.48.48 0 0 1 .425-.53l.476-.05a.48.48 0 0 1 .526.428l.856 8.19a.48.48 0 0 1-.425.53l-.476.05zM16.153 22.642a.48.48 0 0 1-.425-.53l.856-8.19a.48.48 0 0 1 .526-.428l.475.05a.48.48 0 0 1 .426.53l-.856 8.19a.479.479 0 0 1-.526.428l-.476-.05z"/><path clip-rule="evenodd" d="M11.923 1c-.574 0-1.092.344-1.319.875L9.543 4.37H4.913A1.92 1.92 0 0 0 3 6.296v2.408c0 .981.73 1.791 1.672 1.91L7.63 26.227c.09.45.482.774.938.774h11.784a.958.958 0 0 0 .946-.82l2.15-15.584A1.923 1.923 0 0 0 25 8.704V6.296a1.92 1.92 0 0 0-1.913-1.926h-4.63l-1.063-2.495A1.435 1.435 0 0 0 16.075 1h-4.152zm4.452 3.37-.367-.86a.956.956 0 0 0-.879-.584h-2.26a.957.957 0 0 0-.879.584l-.366.86h4.75zm5.094 6.682a.4.4 0 0 0-.397-.455l-13.958.032a.4.4 0 0 0-.392.473L9.198 24.26a1 1 0 0 0 .983.815h8.475a1 1 0 0 0 .99-.863l1.823-13.16zm.661-2.348a.96.96 0 0 0 .957-.963v-.482a.96.96 0 0 0-.957-.963H5.87a.96.96 0 0 0-.957.963v.482a.96.96 0 0 0 .957.963h16.26z" fill-rule="evenodd"/></g></svg>
